src/images/svg/program.svg

<svg width="46" height="48" viewBox="0 0 46 48" fill="none" xmlns="http://www.w3.org/2000/svg">
<g clip-path="url(#clip0)">
<path d="M45.2259 7.44103C45.2259 7.43999 45.2249 7.43895 45.2249 7.43739C45.215 7.41391 45.203 7.39095 45.1889 7.36956C45.1873 7.36799 45.1863 7.36643 45.1852 7.36486C45.1706 7.34295 45.1539 7.32103 45.1346 7.30173L37.9258 0.0933838C37.907 0.0746012 37.8866 0.0589521 37.8647 0.0443434C37.8605 0.0412129 37.8553 0.0385972 37.8511 0.0354667C37.8334 0.0245102 37.8157 0.0145973 37.7969 0.00624947C37.7911 0.00364077 37.7859 0.00103182 37.7807 -0.000533395C37.7337 -0.019316 37.6831 -0.0292283 37.6325 -0.0307936C37.6294 -0.0307936 37.6268 -0.031311 37.6247 -0.031311H5.86749C5.63218 -0.031311 5.44174 0.159646 5.44174 0.394951V44.3609C5.44174 44.389 5.44435 44.4162 5.45009 44.4443C5.4527 44.4563 5.45688 44.4673 5.46053 44.4788C5.46523 44.4939 5.46887 44.509 5.47461 44.5236C5.48035 44.5367 5.48766 44.5492 5.49496 44.5623C5.50122 44.5732 5.50644 44.5857 5.51374 44.5967C5.52835 44.6181 5.54505 44.6384 5.56279 44.6567C5.56436 44.6583 5.56488 44.6603 5.56696 44.6614L8.81375 47.9076C8.98018 48.0741 9.2494 48.0741 9.41636 47.9076L12.3631 44.9624L15.3089 47.9076C15.3918 47.9911 15.5014 48.0323 15.6104 48.0323C15.719 48.0323 15.828 47.9911 15.9115 47.9076L18.8567 44.9629L21.8035 47.9076C21.9699 48.0741 22.2397 48.0741 22.4061 47.9076L25.3513 44.9629L28.2965 47.9076C28.463 48.0741 28.7327 48.0741 28.8986 47.9076L31.8464 44.9624L34.7917 47.9076C34.8746 47.9911 34.9842 48.0323 35.0927 48.0323C35.2017 48.0323 35.3108 47.9911 35.3943 47.9076L38.3395 44.9629L41.2868 47.9076C41.4527 48.0741 41.723 48.0741 41.8889 47.9076L45.1357 44.6614C45.1419 44.6551 45.1466 44.6478 45.1524 44.641C45.1643 44.627 45.1774 44.6129 45.1878 44.5972C45.1977 44.5831 45.2045 44.5669 45.2124 44.5518C45.2176 44.5419 45.2233 44.5336 45.2264 44.5236C45.2353 44.5043 45.2395 44.4845 45.2447 44.4647C45.2468 44.4579 45.2499 44.4516 45.2515 44.4449C45.2572 44.4156 45.2603 44.3875 45.2603 44.3577V7.60382C45.2588 7.54799 45.2478 7.49268 45.2259 7.44103ZM38.0499 1.42382L43.8037 7.17703H38.0499V1.42382ZM44.4063 44.1835L41.5863 47.0035L38.639 44.0583C38.4731 43.8923 38.2033 43.8923 38.0369 44.0583L35.0917 47.0035L32.1464 44.0583C31.98 43.8923 31.7103 43.8923 31.5438 44.0583L28.5965 47.0035L25.6518 44.0598C25.6518 44.0593 25.6513 44.0588 25.6513 44.0583C25.5684 43.9753 25.4593 43.9336 25.3497 43.9336C25.2407 43.9336 25.1317 43.9753 25.0487 44.0583C25.0482 44.0588 25.0482 44.0588 25.0482 44.0588L22.1035 47.0035L19.1567 44.0583C18.9903 43.8923 18.721 43.8923 18.5541 44.0583L15.6089 47.0035L12.6631 44.0583C12.4967 43.8923 12.2275 43.8923 12.0605 44.0583L9.11375 47.0035L6.29322 44.1835V0.820169H37.1979V7.60278C37.1979 7.83808 37.3889 8.02904 37.6242 8.02904H44.4057L44.4063 44.1835Z" fill="#FF6B09"/>
<path d="M9.47063 4.85113H23.4251C23.6604 4.85113 23.8513 4.66018 23.8513 4.42487C23.8513 4.18957 23.6604 3.99861 23.4251 3.99861H9.47063C9.2348 3.99861 9.04437 4.18957 9.04437 4.42487C9.04437 4.66018 9.2348 4.85113 9.47063 4.85113Z" fill="#FF6B09"/>
<path d="M9.47063 7.48643H31.8485C32.0838 7.48643 32.2748 7.29548 32.2748 7.06017C32.2748 6.82487 32.0838 6.63391 31.8485 6.63391H9.47063C9.2348 6.63391 9.04437 6.82487 9.04437 7.06017C9.04437 7.29548 9.2348 7.48643 9.47063 7.48643Z" fill="#FF6B09"/>
<path d="M9.04437 9.852V23.6499C9.04437 23.8852 9.2348 24.0762 9.47063 24.0762H41.2289C41.4642 24.0762 41.6546 23.8852 41.6546 23.6499V9.852C41.6546 9.61669 41.4642 9.42574 41.2289 9.42574H9.47063C9.2348 9.42574 9.04437 9.61669 9.04437 9.852ZM18.4623 10.2783H40.8021V13.9456H18.4623V10.2783ZM18.4623 14.7981H40.8021V18.4638H18.4623V14.7981ZM18.4623 19.3158H40.8021V23.2236H18.4623V19.3158ZM9.89689 10.2783H17.6103V13.9456H9.89689V10.2783ZM9.89689 14.7981H17.6103V18.4638H9.89689V14.7981ZM9.89689 19.3158H17.6103V23.2236H9.89689V19.3158Z" fill="#FF6B09"/>
<path d="M41.2289 25.9936H9.47063C9.2348 25.9936 9.04437 26.1845 9.04437 26.4198V40.2172C9.04437 40.4525 9.2348 40.643 9.47063 40.643C9.70593 40.643 9.89637 40.4525 9.89637 40.2172V35.8837H17.6098V40.2172C17.6098 40.4525 17.8007 40.643 18.0355 40.643C18.2713 40.643 18.4618 40.4525 18.4618 40.2172V35.8837H40.8016V40.2172C40.8016 40.4525 40.9925 40.643 41.2278 40.643C41.4631 40.643 41.6536 40.4525 41.6536 40.2172V26.4198C41.6546 26.1845 41.4642 25.9936 41.2289 25.9936ZM17.6103 35.0311H9.89689V31.3659H17.6103V35.0311ZM17.6103 30.5129H9.89689V26.8466H17.6103V30.5129ZM40.8021 35.0311H18.4623V31.3659H40.8021V35.0311ZM40.8021 30.5129H18.4623V26.8466H40.8021V30.5129Z" fill="#FF6B09"/>
<path d="M3.42104 -0.0318298C3.18574 -0.0318298 2.99478 0.159127 2.99478 0.394432V44.3603C2.99478 44.5951 3.18574 44.7861 3.42104 44.7861C3.65635 44.7861 3.8473 44.5951 3.8473 44.3603V0.394432C3.8473 0.159127 3.65635 -0.0318298 3.42104 -0.0318298Z" fill="#FF6B09"/>
<path d="M1.0774 -0.0318298C0.842095 -0.0318298 0.651138 0.159127 0.651138 0.394432V44.3603C0.651138 44.5951 0.842095 44.7861 1.0774 44.7861C1.3127 44.7861 1.50314 44.5951 1.50314 44.3603V0.394432C1.50314 0.159127 1.3127 -0.0318298 1.0774 -0.0318298Z" fill="#FF6B09"/>
</g>
<defs>
<clipPath id="clip0">
<rect width="45.3913" height="48" fill="white"/>
</clipPath>
</defs>
</svg>

<svg xmlns="http://www.w3.org/2000/svg" fill="none" viewBox="0 0 46 48"><g fill="#FF6B09" clip-path="url(#clip0)"><path d="M45.226 7.441l-.001-.004a.42.42 0 0 0-.036-.067l-.004-.005a.413.413 0 0 0-.05-.063L37.925.093a.395.395 0 0 0-.06-.049c-.005-.003-.01-.005-.014-.009a.449.449 0 0 0-.054-.029L37.78 0a.437.437 0 0 0-.148-.03H5.867a.426.426 0 0 0-.425.426v43.966c0 .028.002.055.008.083l.01.035.015.045c.005.013.013.025.02.038.006.011.011.024.019.035a.457.457 0 0 0 .049.06l.004.004 3.247 3.247a.426.426 0 0 0 .602 0l2.947-2.946 2.946 2.946a.423.423 0 0 0 .603 0l2.945-2.945 2.947 2.945a.426.426 0 0 0 .602 0l2.945-2.945 2.946 2.945a.425.425 0 0 0 .602 0l2.947-2.946 2.946 2.946a.423.423 0 0 0 .602 0l2.946-2.945 2.947 2.945a.425.425 0 0 0 .602 0l3.247-3.247.016-.02c.012-.014.025-.028.036-.044.01-.014.017-.03.024-.045.006-.01.011-.018.014-.028.01-.02.014-.04.019-.06l.007-.02a.449.449 0 0 0 .008-.086V7.604a.447.447 0 0 0-.034-.163zM38.05 1.424l5.754 5.753H38.05V1.424zm6.356 42.76l-2.82 2.82-2.947-2.946a.426.426 0 0 0-.602 0l-2.945 2.946-2.946-2.946a.427.427 0 0 0-.602 0l-2.948 2.946-2.944-2.944v-.002a.425.425 0 0 0-.603 0l-2.945 2.946-2.947-2.946a.427.427 0 0 0-.603 0l-2.945 2.946-2.946-2.946a.427.427 0 0 0-.603 0l-2.946 2.946-2.82-2.82V.82h30.904v6.783c0 .235.19.426.426.426h6.782v36.154z"/><path d="M9.47 4.851h13.955a.426.426 0 0 0 0-.852H9.471a.426.426 0 1 0 0 .852zM9.47 7.486H31.85a.426.426 0 0 0 0-.852H9.47a.426.426 0 1 0 0 .852zM9.044 9.852V23.65c0 .235.19.426.427.426h31.758a.426.426 0 0 0 .426-.426V9.852a.426.426 0 0 0-.426-.426H9.47a.426.426 0 0 0-.427.426zm9.418.426h22.34v3.668h-22.34v-3.668zm0 4.52h22.34v3.666h-22.34v-3.666zm0 4.518h22.34v3.908h-22.34v-3.908zm-8.565-9.038h7.713v3.668H9.897v-3.668zm0 4.52h7.713v3.666H9.897v-3.666zm0 4.518h7.713v3.908H9.897v-3.908zM41.229 25.994H9.47a.426.426 0 0 0-.427.426v13.797a.426.426 0 1 0 .852 0v-4.333h7.714v4.333a.426.426 0 0 0 .852 0v-4.333h22.34v4.333a.426.426 0 0 0 .852 0V26.42a.424.424 0 0 0-.425-.426zM17.61 35.03H9.897v-3.665h7.713v3.665zm0-4.518H9.897v-3.666h7.713v3.666zm23.192 4.518h-22.34v-3.665h22.34v3.665zm0-4.518h-22.34v-3.666h22.34v3.666zM3.421-.032a.426.426 0 0 0-.426.426V44.36a.426.426 0 0 0 .852 0V.394a.426.426 0 0 0-.426-.426zM1.077-.032a.426.426 0 0 0-.426.426V44.36a.426.426 0 0 0 .852 0V.394a.426.426 0 0 0-.426-.426z"/></g><defs><clipPath id="clip0"><path fill="#fff" d="M0 0h45.391v48H0z"/></clipPath></defs></svg>
